src/static/png-icon.svg

<?xml version="1.0" encoding="UTF-8" standalone="no"?>
<svg
   id="svg"
   width="400"
   height="424"
   viewBox="0, 0, 400,424"
   version="1.1"
   sodipodi:docname="png-icon.svg"
   inkscape:version="1.1 (c68e22c387, 2021-05-23)"
   xmlns:inkscape="http://www.inkscape.org/namespaces/inkscape"
   xmlns:sodipodi="http://sodipodi.sourceforge.net/DTD/sodipodi-0.dtd"
   xmlns="http://www.w3.org/2000/svg"
   xmlns:svg="http://www.w3.org/2000/svg">
  <defs
     id="defs7" />
  <sodipodi:namedview
     id="namedview5"
     pagecolor="#ffffff"
     bordercolor="#666666"
     borderopacity="1.0"
     inkscape:pageshadow="2"
     inkscape:pageopacity="0.0"
     inkscape:pagecheckerboard="0"
     showgrid="true"
     inkscape:zoom="5.0231265"
     inkscape:cx="143.63564"
     inkscape:cy="358.4421"
     inkscape:window-width="1920"
     inkscape:window-height="1137"
     inkscape:window-x="-8"
     inkscape:window-y="-8"
     inkscape:window-maximized="1"
     inkscape:current-layer="svgg">
    <inkscape:grid
       type="xygrid"
       id="grid26" />
  </sodipodi:namedview>
  <g
     id="svgg">
    <path
       id="path0"
       d="M 13.84,0.984 C 8.428,2.713 4.324,6.303 1.817,11.5 L 0.25,14.75 0.123,210.934 C 0.01,385.303 0.081,407.402 0.757,409.678 c 1.642,5.532 6.402,10.603 12.117,12.911 l 2.876,1.161 150.5,0.137 c 173.45,0.159 158.523,0.697 165.179,-5.958 5.8,-5.801 6.071,-7.45 6.071,-36.997 V 357 h 18.895 c 26.035,0 32.027,-2.115 38.007,-13.412 3.556,-6.717 3.312,-2.239 3.482,-63.794 0.191,-69.282 0.384,-67.446 -7.924,-75.754 -7.129,-7.129 -11.177,-8.03 -36.093,-8.036 L 337.485,196 l 0.024,-42.015 c 0.02,-37.089 -0.068,-62.209 -0.758,-63.662 C 335.654,88.011 251.935,3.104 249.045,1.384 l -2.295,-1.367 -125,0.018 C 20.796,0.053 16.638,0.09 13.84,0.984 M 189,64.021 c 0,42.113 -0.012,41.943 3.535,49.328 3.251,6.77 28.727,31.046 38.215,34.223 l 3.5,1.173 38.375,0.145 18.375,0.145 V 162.518 196 l -91.125,0.004 c -68.834,0.002 -112.737,0.189 -115.361,0.491 -10.34,1.188 -18.861,8.322 -22.395,18.747 -1.023,3.02 -1.613,110.736 -0.65,118.758 1.251,10.421 9.212,19.606 19.263,22.224 2.649,0.69 15.55,0.776 116.623,0.776 H 291 v 20 c -101,0 -121,0 -244.29977,-0.0233 0,-0.84609 -0.238942,-103.19223 -0.07623,-164.6747 L 47.061,47.177 C 47.0629,46.443348 42.652,46.5 118.311,46.5 H 189 V 64.021 M 291,105 h -17 c -34.052,-0.003 -34.797,0.448 -37.556,-1.874 -3.542,-2.98 -3.421,-1.624 -3.433,-38.461 L 232.9296,46.577689 M 322.895,236.036 c 13.404,1.479 25.561,11.096 26.256,20.77 l 0.099,1.376 -11.5,2.076 -11.5,2.076 -1,-1.93 c -5.596,-10.8 -23.372,-9.701 -28.996,1.792 -3.449,7.05 -3.747,20.316 -0.649,28.939 3.859,10.743 17.255,13.751 30.796,6.915 l 3.099,-1.564 V 292.493 288.5 H 321 312.5 V 280.25 272 H 331.75 351 v 17.143 17.143 l -4.625,2.804 c -18.709,11.341 -41.347,13.45 -57.766,5.381 -26.177,-12.865 -26.773,-59.218 -0.948,-73.652 8.272,-4.622 21.014,-6.352 35.234,-4.783 m -166.299,1.949 c 11.897,2.998 17.475,10.652 17.441,23.932 -0.046,18.048 -9.852,25.554 -33.412,25.574 L 130.5,287.5 V 302.75 318 H 118 105.5 V 277.5 237 l 23.625,0.008 c 21.704,0.007 23.938,0.086 27.471,0.977 M 221,259.464 236.25,281.926 236.38,259.463 236.51,237 H 248.255 260 V 277.5 318 H 248.364 236.727 L 221.489,295.548 206.25,273.097 206.12,295.548 205.99,318 H 194.245 182.5 V 277.5 237 l 11.625,0.001 11.625,0.001 15.25,22.462 m -90.5,2.728 v 9.308 h 5.409 c 10.096,0 14.234,-2.698 14.234,-9.28 0,-6.47 -3.388,-8.848 -13.018,-9.137 l -6.625,-0.199 v 9.308"
       stroke="none"
       fill="#000000"
       fill-rule="evenodd"
       sodipodi:nodetypes="cccccccccscsccssccccccccccccccccccssscccsssccccccccccccscccccccccccccccccccccccccccccccccccccccccccccccccccccssccc" />
  </g>
</svg>
<!--Icon taken from www.uxwing.com and edited in Inkscape-->

<svg id="svg" xmlns="http://www.w3.org/2000/svg" xmlns:xlink="http://www.w3.org/1999/xlink" width="400" height="424" viewBox="0, 0, 400,424"><g id="svgg"><path id="path0" d="M13.840 0.984 C 8.428 2.713,4.324 6.303,1.817 11.500 L 0.250 14.750 0.123 210.934 C 0.010 385.303,0.081 407.402,0.757 409.678 C 2.399 415.210,7.159 420.281,12.874 422.589 L 15.750 423.750 166.250 423.887 C 339.700 424.046,324.773 424.584,331.429 417.929 C 337.229 412.128,337.500 410.479,337.500 380.932 L 337.500 357.000 356.395 357.000 C 382.430 357.000,388.422 354.885,394.402 343.588 C 397.958 336.871,397.714 341.349,397.884 279.794 C 398.075 210.512,398.268 212.348,389.960 204.040 C 382.831 196.911,378.783 196.010,353.867 196.004 L 337.485 196.000 337.509 153.985 C 337.529 116.896,337.441 111.776,336.751 110.323 C 335.654 108.011,231.935 3.104,229.045 1.384 L 226.750 0.017 121.750 0.035 C 20.796 0.053,16.638 0.090,13.840 0.984 M209.000 64.021 C 209.000 106.134,208.988 105.964,212.535 113.349 C 215.786 120.119,221.262 124.395,230.750 127.572 L 234.250 128.745 272.625 128.890 L 311.000 129.035 311.000 162.518 L 311.000 196.000 199.875 196.004 C 131.041 196.006,87.138 196.193,84.514 196.495 C 74.174 197.683,65.653 204.817,62.119 215.242 C 61.096 218.262,60.506 325.978,61.469 334.000 C 62.720 344.421,70.681 353.606,80.732 356.224 C 83.381 356.914,96.282 357.000,197.355 357.000 L 311.000 357.000 311.000 376.173 C 311.000 394.119,310.941 395.398,310.085 396.173 C 309.236 396.941,298.822 396.993,167.960 396.876 L 26.750 396.750 26.624 212.302 C 26.532 76.362,26.646 27.676,27.061 27.177 C 27.529 26.612,42.652 26.500,118.311 26.500 L 209.000 26.500 209.000 64.021 M291.728 90.875 L 306.227 105.500 273.989 105.497 C 239.937 105.494,239.203 105.448,236.444 103.126 C 232.902 100.146,233.023 101.502,233.011 64.665 L 233.000 31.580 255.114 53.915 C 267.277 66.199,283.753 82.831,291.728 90.875 M322.895 236.036 C 336.299 237.515,348.456 247.132,349.151 256.806 L 349.250 258.182 337.750 260.258 L 326.250 262.334 325.250 260.404 C 319.654 249.604,301.878 250.703,296.254 262.196 C 292.805 269.246,292.507 282.512,295.605 291.135 C 299.464 301.878,312.860 304.886,326.401 298.050 L 329.500 296.486 329.500 292.493 L 329.500 288.500 321.000 288.500 L 312.500 288.500 312.500 280.250 L 312.500 272.000 331.750 272.000 L 351.000 272.000 351.000 289.143 L 351.000 306.286 346.375 309.090 C 327.666 320.431,305.028 322.540,288.609 314.471 C 262.432 301.606,261.836 255.253,287.661 240.819 C 295.933 236.197,308.675 234.467,322.895 236.036 M156.596 237.985 C 168.493 240.983,174.071 248.637,174.037 261.917 C 173.991 279.965,164.185 287.471,140.625 287.491 L 130.500 287.500 130.500 302.750 L 130.500 318.000 118.000 318.000 L 105.500 318.000 105.500 277.500 L 105.500 237.000 129.125 237.008 C 150.829 237.015,153.063 237.094,156.596 237.985 M221.000 259.464 L 236.250 281.926 236.380 259.463 L 236.510 237.000 248.255 237.000 L 260.000 237.000 260.000 277.500 L 260.000 318.000 248.364 318.000 L 236.727 318.000 221.489 295.548 L 206.250 273.097 206.120 295.548 L 205.990 318.000 194.245 318.000 L 182.500 318.000 182.500 277.500 L 182.500 237.000 194.125 237.001 L 205.750 237.002 221.000 259.464 M130.500 262.192 L 130.500 271.500 135.909 271.500 C 146.005 271.500,150.143 268.802,150.143 262.220 C 150.143 255.750,146.755 253.372,137.125 253.083 L 130.500 252.884 130.500 262.192 " stroke="none" fill="#000000" fill-rule="evenodd"></path></g></svg>
<!--Icon taken from www.uxwing.com-->
